X:1
T:Lough Sheeling [2]
M:3/4
L:1/8
R:Air
Q:”Slow and with expression”
B:J. Clinton – Gems of Ireland:200 Airs (1841, No. 30, p. 15)
Z:AK/Fiddler’s Companion
K:Amin
"Slow"(e2|a2) .a>b(c'a)|(g2e) z (cd/e/)-|f2 f2 (e>d)|{d}e3 z (e2|
a2) (a>b)(c'a)|(a>g) e z (c2|d>c) A zA2|A4||
(G>A)|c2 (c2 d>e)|(d2c) z(cd/e/)|f2f2 (ed)|{d}e4 (e2|
a2) (a>b)(c'a)|(a>g) e3c|(d>c).A zA2|A4||

